src/assets/selectIcons/strumento_6.svg

<svg xmlns="http://www.w3.org/2000/svg" viewBox="0 0 512 512"><path d="M0 0h512v512H0z"/><path fill="#fff" d="M50.396 27.148s3.885 57.047 20.793 101.735c-26.238 7.921-51.181 22.26-51.181 22.26S44.648 186.767 71 204.666c20.678-5.465 41.356-9.71 61.88-12.967.229-.628 36.217-2.59 61.39-11.234 8.453-2.857-93.338-101.965-89.036-106.477 4.343-4.57 116.758 86.083 119.309 81.037 13.786-27.038 2.59-60.111-29.475-90.462C157.101 28.538 50.396 27.148 50.396 27.148zm388.588 6.055c-15.462 0-29.508 6.699-38.996 17.29-15.304 17.082-12 50.224-20.832 65.575-11.995 18.718-75.135 67.748-75.135 67.748s42.995 1.79 79.211 17.403c8.873-17.346 11.385-25.076 33.168-43.012 9.94-8.206 26.968-15.866 41.663-22.678 20.405-9.46 33.628-26.988 33.93-49.336 0-29.246-23.763-52.99-53.009-52.99zM236.697 206.498c-67.057-.324-136.223 11.41-205.19 36.172v91.91c0 83.018 67.254 150.272 150.272 150.272h97.186c82.942 0 150.27-67.253 150.27-150.272v-91.91c-60.532-23.468-125.48-35.848-192.538-36.172z"/></svg>

<?xml version="1.0" encoding="UTF-8" standalone="no"?>
<!DOCTYPE svg PUBLIC "-//W3C//DTD SVG 1.1//EN" "http://www.w3.org/Graphics/SVG/1.1/DTD/svg11.dtd">
<svg width="100%" height="100%" viewBox="0 0 512 512" version="1.1" xmlns="http://www.w3.org/2000/svg" xmlns:xlink="http://www.w3.org/1999/xlink" xml:space="preserve" xmlns:serif="http://www.serif.com/" style="fill-rule:evenodd;clip-rule:evenodd;stroke-linejoin:round;stroke-miterlimit:2;">
    <rect x="0" y="0" width="512" height="512" style="fill-rule:nonzero;"/>
    <path d="M438.984,33.203C423.522,33.203 409.476,39.902 399.988,50.493C384.684,67.575 387.988,100.717 379.156,116.068C367.161,134.786 304.021,183.816 304.021,183.816C304.021,183.816 347.016,185.606 383.232,201.219C392.105,183.873 394.617,176.143 416.4,158.207C426.34,150.001 443.368,142.341 458.063,135.529C478.468,126.069 491.691,108.541 491.993,86.193C491.993,56.947 468.23,33.203 438.984,33.203ZM236.697,206.498C169.64,206.174 100.474,217.908 31.507,242.67L31.507,334.58C31.507,417.598 98.761,484.852 181.779,484.852L278.965,484.852C361.907,484.852 429.235,417.599 429.235,334.58L429.235,242.67C368.703,219.202 303.755,206.822 236.697,206.498Z" style="fill:rgb(153,153,153);fill-rule:nonzero;"/>
    <path d="M50.396,27.148C50.396,27.148 157.101,28.538 195.068,64.563C227.133,94.914 238.329,127.987 224.543,155.025C221.992,160.071 109.577,69.418 105.234,73.988C100.932,78.5 202.723,177.608 194.27,180.465C169.097,189.109 133.109,191.071 132.88,191.699C112.356,194.956 91.678,199.201 71,204.666C44.648,186.767 20.008,151.143 20.008,151.143C20.008,151.143 44.951,136.804 71.189,128.883C54.281,84.195 50.396,27.148 50.396,27.148Z" style="fill:rgb(85,169,153);"/>
</svg>
